X:1
T:James Gibb editions
T:Coelestis urbs Jerusalem - Thermignon
T:#
%%score [ 1 2 3 ]
L:1/8
Q:1/4=192
M:2/2
K:G
V:1 treble nm="Alto" snm="A"
V:2 treble-8 nm="Tenor" snm="T"
V:3 bass nm="Bass" snm="B"
V:1
"^Coelestis urbs Jerusalem""^Delfino Thermignon\n (1861-1944)""^moderato assai" D2 | D4 (E2 F2) | %2
w: Coe-|le- stis *|
w: Hic|mar- ga\- *|
w: |De- cus Pa-|
 G4 E4 | F6 F2 | F4 z2 F2 | B4 A4 |[M:2/2] A4 G4 | F4 (G2 F2) | E4 z2 E2 | A4 F4 | G4 E4 | %11
w: urbs Je-|ru- sa-|lem, be-|a- ta|pa- cis|vi- si\- *|o, quae|cel- sa|de vi-|
w: ri- tis|e- mi-|cant, pa-|tent- que|cun- ctis|o- sti\- *|a: vir-|tu- te|nam- que|
w: ren- ti|de- bi-|tum sit|u- sque|qua- que~Al-|tis- si\- *|mo, Na-|to- que|Pa- tris|
 F4 (G2 A2) | B8 | E4 F2 G2 | A4 (G2 F2) | E4 E4 | F4 z4 | z8 | z4 z2 F2 | B4 A4 | (E2 F2) G4 | %21
w: ven- ti\- *|bus|sa- xis as|a- stra *|tol- le-|ris,||spon-|sae- que|ri\- * tu|
w: prae- vi\- *|a|mor- ta- lis|il- luc *|du- ci-|tur,||a-|mo- re|Chri\- * sti|
w: u- ni\- *|co,|et in- cli-|to Pa\- *|ra- cli-|to,||cui|laus, po-|te\- * stas,|
 F3 E D4 | G4 =F2 F2 | (E2 ^F2) (G2 A2) | G6 F2 | !fermata!G8 || (E2 F2) (G2"^," D2) | %27
w: cin- ge- ris|mil- le~An- ge-|lo\- * rum *|mil- li-|bus.|A\- * men, *|
w: per- ci- tus|tor- men- ta|quis\- * quis *|su- sti-|net.||
w: glo- ri- a,|ae- ter- na|sit * per *|sae- cu-|la.||
 (E2 DC B,2 C2 | A,8) | !fermata!B,8 |] %30
w: A\- * * * *||men.|
w: |||
w: |||
V:2
 B2 | B4 (c2 d2) | B4 ^c4 | d6 d2 | d4 z2 d2 | d4 d4 |[M:2/2][K:treble-8] ^c4 c4 | d4 B4 | %8
w: Coe-|le- stis *|urbs Je-|ru- sa-|lem, be-|a- ta|pa- cis|vi- si-|
w: Hic|mar- ga\- *|ri- tis|e- mi-|cant, pa-|tent- que|cun- ctis|o- sti-|
w: |De- cus Pa-|ren- ti|de- bi-|tum sit|u- sque|qua- que~Al-|tis- si-|
 ^c4 z2 c2 | d4 (d2 =c2) | B4 ^c4 | d4 d4 | d8 | (e2 d2) =c2 B2 | d4 (^c2 d2) | (d2 B2) ^c4 | %16
w: o, quae|cel- sa *|de vi-|ven- ti-|bus|sa\- * xis as|a- stra *|tol\- * le-|
w: a: vir-|tu- te *|nam- que|prae- vi-|a|mor\- * ta- lis|il- luc *|du\- * ci-|
w: mo, Na-|to- que *|Pa- tris|u- ni-|co,|et * in- cli-|to Pa\- *|ra\- * cli-|
 d4 z4 | z4 z2 d2 | g4 f4 | d8 | (^c4 B2 c2) | d3 ^c B4 | B4 B2 B2 | c4 (d2 e2) | d4 c4 | %25
w: ris,|spon-|sae- que|ri-|tu * *|cin- ge- ris|mil- le~An- ge-|lo- rum *|mil- li-|
w: tur,|a-|mo- re|Chri-|sti * *|per- ci- tus|tor- men- ta|quis- quis *|su- sti-|
w: to,|cui|laus, po-|te-|stas, * *|glo- ri- a,|ae- ter- na|sit per *|sae- cu-|
 !fermata!B8 || c4"^," B4 | G8- | G4 F4 | !fermata!G8 |] %30
w: bus.|A- men,|A\-||men.|
w: net.|||||
w: la.|||||
V:3
 B,2 | B,4 A,2- A,2 | E,4 A,4 | D,6 D,2 | D,4 z2 D,2 | G,4 F,4 |[M:2/2] A,4 A,4 | B,4 G,4 | %8
w: Coe-|le- stis *|urbs Je-|ru- sa-|lem, be-|a- ta|pa- cis|vi- si-|
w: Hic|mar- ga\- *|ri- tis|e- mi-|cant, pa-|tent- que|cun- ctis|o- sti-|
w: |De- cus Pa-|ren- ti|de- bi-|tum sit|u- sque|qua- que~Al-|tis- si-|
 A,4 z2 A,2 | F,4 D,4 | E,4 A,4 | D,4 (E,2 F,2) | G,8 | =C2 B,2 A,2 G,2 | F,4 (E,2 D,2) | A,4 A,4 | %16
w: o, quae|cel- sa|de vi-|ven- ti\- *|bus|sa\- * xis as|a- stra *|tol- le-|
w: a: vir-|tu- te|nam- que|prae- vi\- *|a|mor\- * ta- lis|il- luc *|du- ci-|
w: mo, Na-|to- que|Pa- tris|u- ni\- *|co,|et * in- cli-|to Pa\- *|ra- cli-|
 D,4 z2 D,2 | D4 =C4 | (B,4 A,4 | G,4 F,4) | (A,4 E,4) | B,3 B, B,4 | G,4 G,2 G,2 | A,4 B,2 C2 | %24
w: ris, spon-|sae- que|ri\- *||tu *|cin- ge- ris|mil- le~An- ge-|lo- rum *|
w: tur, a-|mo- re|Chri\- *||sti *|per- ci- tus|tor- men- ta|quis- quis *|
w: to, cui|laus, po-|te\- *||stas, *|glo- ri- a,|ae- ter- na|sit per *|
 B,4 (A,2 D,2) | !fermata!G,8 || C4"^," G,4 | (C,4 E,2 C,2 | D,8) | !fermata!G,8 |] %30
w: mil- li\- *|bus.|A- men,|A\- * *||men.|
w: su- sti\- *|net.|||||
w: sae- cu\- *|la.|||||

